app/svg/icon-comment_white.svg

<svg width="24" height="24" viewBox="0 0 24 24" fill="none" xmlns="http://www.w3.org/2000/svg">
<g clip-path="url(#clip0)">
<path d="M3.49433 22.5656H1.79379L2.99624 21.3632C3.64459 20.7148 4.04946 19.8716 4.15831 18.9568C1.38183 17.1347 0 14.4951 0 11.7279C0 6.62267 4.69218 1.43457 12.0407 1.43457C19.8256 1.43457 24 6.20859 24 11.2806C24 16.3861 19.7815 21.1569 12.0407 21.1569C10.6847 21.1569 9.26968 20.9759 8.00637 20.6437C6.81049 21.8703 5.19016 22.5656 3.49433 22.5656Z" fill="white"></path>
</g>
<defs>
<clipPath id="clip0">
<path d="M0 0H24V24H0V0Z" fill="white"></path>
</clipPath>
</defs>
</svg>

<svg width="24" height="24" fill="none" xmlns="http://www.w3.org/2000/svg"><g clip-path="url(#clip0)"><path d="M3.5 22.57H1.8l1.2-1.2a4.07 4.07 0 001.16-2.41C1.38 17.13 0 14.5 0 11.73c0-5.1 4.7-10.3 12.04-10.3C19.83 1.43 24 6.21 24 11.28c0 5.1-4.22 9.88-11.96 9.88-1.36 0-2.77-.18-4.03-.52a6.3 6.3 0 01-4.52 1.93z" fill="#fff"></path></g><defs><clipPath id="clip0"><path d="M0 0h24v24H0V0z" fill="#fff"></path></clipPath></defs></svg>
